X:1
T:King City, 887.87 D
T:King City, 887.87 D
T:Thomas Benjamin Mosley, 1899
T:Public Domain Courtesy of the Cyber Hymnal™
C:Thomas Benjamin Mosley, 1899
Z:Public Domain
Z:Courtesy of the Cyber Hymnal™
%%score ( 1 2 ) ( 3 4 )
L:1/8
Q:1/4=105
M:4/4
K:A
V:1 treble 
V:2 treble 
V:3 bass 
V:4 bass 
V:1
 [CE]>[CE] | [CF]2 [CE]2 [Ec]2 [CA]2 | [DA]2 [DG]4 [DE]>[DE] | [DF]2 [DE]2 [Dd]2 [DG]2 | %4
 (F2 E4) [CE]>[C^E] | [CF]2 [^EG]2 [FA]2 [FB]2 | [^Ec]2 [Ec]4 [Fd]>[FB] | [EA]2 E2 [Ec]3 [DB] | %8
 [CA]6 [Ec]>[Fd] | [Ec]2 [DB]2 [DE]2 ([DB][Ec]) | [DB] [CA]3- [CA]2 [EA]>[EA] | %11
 [FA]2 [^EG]2 [FA]2 [FB]2 | [^Ec]6 [EB]>[EB] | [Ec]2 [Ee]2 [Ed]2 [Ec]2 | %14
 [FB] [DF]3- [DF]2 [Fd]>[Fd] | [Ec]2 [EA]2 ([Ac] !fermata![GB]2) [EA] | [EA]6 |] %17
V:2
 x2 | x8 | x8 | x8 | C6 x2 | x8 | x8 | x2 E2 x4 | x8 | x8 | x8 | x8 | x8 | x8 | x8 | x8 | x6 |] %17
V:3
 [A,,A,]>[A,,A,] | [A,,A,]2 [A,,A,]2 [A,,A,]2 [A,,E,]2 | [B,,E,]2 [B,,E,]4 [E,G,]>[E,G,] | %3
 [E,G,]2 [E,G,]2 [E,G,]2 [E,B,]2 | [A,,A,]6 [A,,A,]>[A,,A,] | [F,,A,]2 [C,C]2 [F,C]2 [D,F,]2 | %6
 [C,G,]2 [C,G,]4 [B,,B,]>[D,B,] | [E,C]2 [E,C]2 [E,A,]3 [E,G,] | [A,,A,]6 [A,,A,]>[A,,A,] | %9
 [E,A,]2 [E,G,]2 [E,G,]2 [E,G,]2 | [A,,A,][A,,A,][A,,A,][A,,A,] [A,,A,][A,,A,] [C,A,]>[C,A,] | %11
 [D,A,]2 [D,B,]2 [D,A,]2 [D,F,]2 | [C,G,]2 [C,G,]>[C,G,] [C,G,]2 [E,G,]>[E,G,] | %13
 A,2 [A,C]2 [G,B,]2 A,2 | [D,A,][D,A,][D,A,][D,A,] [D,A,][D,A,] [D,A,]>[D,A,] | %15
 [E,A,]2 [E,C]2 (E D2) [E,C] | [A,,C]6 |] %17
V:4
 x2 | x8 | x8 | x8 | x8 | x8 | x8 | x8 | x8 | x8 | x8 | x8 | x8 | A,2 x2 A,2 x2 | x8 | x4 E,3 x | %16
 x6 |] %17

